svgs/sharp-regular/sitemap.svg

<svg xmlns="http://www.w3.org/2000/svg" viewBox="0 0 576 512"><!--! Font Awesome Pro 6.6.0 by @fontawesome - https://fontawesome.com License - https://fontawesome.com/license (Commercial License) Copyright 2024 Fonticons, Inc. --><path d="M320 80l0 64-64 0 0-64 64 0zM256 32l-48 0 0 48 0 64 0 48 48 0 8 0 0 40L80 232l-24 0 0 24 0 64-8 0L0 320l0 48 0 64 0 48 48 0 64 0 48 0 0-48 0-64 0-48-48 0-8 0 0-40 160 0 0 40-8 0-48 0 0 48 0 64 0 48 48 0 64 0 48 0 0-48 0-64 0-48-48 0-8 0 0-40 160 0 0 40-8 0-48 0 0 48 0 64 0 48 48 0 64 0 48 0 0-48 0-64 0-48-48 0-8 0 0-64 0-24-24 0-184 0 0-40 8 0 48 0 0-48 0-64 0-48-48 0-64 0zM48 432l0-64 64 0 0 64-64 0zm208-64l64 0 0 64-64 0 0-64zm208 64l0-64 64 0 0 64-64 0z"/></svg>

<svg xmlns="http://www.w3.org/2000/svg" viewBox="0 0 576 512"><!--! Font Awesome Pro 6.4.2 by @fontawesome - https://fontawesome.com License - https://fontawesome.com/license (Commercial License) Copyright 2023 Fonticons, Inc. --><path d="M320 80v64H256V80h64zM256 32H208V80v64 48h48 8v40H80 56v24 64H48 0v48 64 48H48h64 48V432 368 320H112h-8V280H264v40h-8H208v48 64 48h48 64 48V432 368 320H320h-8V280H472v40h-8H416v48 64 48h48 64 48V432 368 320H528h-8V256 232H496 312V192h8 48V144 80 32H320 256zM48 432V368h64v64H48zm208-64h64v64H256V368zm208 64V368h64v64H464z"/></svg>
